public/images/social-youtube.svg

<svg fill="none" height="26" viewBox="0 0 27 26" width="27" xmlns="http://www.w3.org/2000/svg"><path clip-rule="evenodd" d="m13.9158.0883789c7.2228 0 13.0842 5.7840311 13.0842 12.9115211 0 7.1275-5.8614 12.9115-13.0842 12.9115-7.22284 0-13.084257-5.784-13.084257-12.9115 0-7.12749 5.861417-12.9115211 13.084257-12.9115211zm7.8342 9.0259911c-.1875-.69183-.7418-1.23886-1.4429-1.42389-1.2717-.33787-6.3913-.33787-6.3913-.33787s-5.11143 0-6.39132.33787c-.70108.18503-1.25544.73206-1.44294 1.42389-.34239 1.25493-.34239 3.88553-.34239 3.88553s0 2.6225.34239 3.8855c.1875.6918.74186 1.2389 1.44294 1.4239 1.27174.3379 6.39132.3379 6.39132.3379s5.1114 0 6.3913-.3379c.7011-.185 1.2554-.7321 1.4429-1.4239.3424-1.2549.3424-3.8855.3424-3.8855s0-2.6225-.3424-3.88553zm-9.4728 6.30693v-4.8428l4.2473 2.4214z" fill="#51b8bc" fill-rule="evenodd"/></svg>

<svg width="27" height="26" viewBox="0 0 27 26" fill="none" xmlns="http://www.w3.org/2000/svg">
<path fill-rule="evenodd" clip-rule="evenodd" d="M13.9158 0.0883789C21.1386 0.0883789 27 5.87241 27 12.9999C27 20.1274 21.1386 25.9114 13.9158 25.9114C6.69296 25.9114 0.831543 20.1274 0.831543 12.9999C0.831543 5.87241 6.69296 0.0883789 13.9158 0.0883789ZM21.75 9.11437C21.5625 8.42254 21.0082 7.87551 20.3071 7.69048C19.0354 7.35261 13.9158 7.35261 13.9158 7.35261C13.9158 7.35261 8.80437 7.35261 7.52448 7.69048C6.8234 7.87551 6.26904 8.42254 6.08154 9.11437C5.73915 10.3693 5.73915 12.9999 5.73915 12.9999C5.73915 12.9999 5.73915 15.6224 6.08154 16.8854C6.26904 17.5772 6.8234 18.1243 7.52448 18.3093C8.79622 18.6472 13.9158 18.6472 13.9158 18.6472C13.9158 18.6472 19.0272 18.6472 20.3071 18.3093C21.0082 18.1243 21.5625 17.5772 21.75 16.8854C22.0924 15.6305 22.0924 12.9999 22.0924 12.9999C22.0924 12.9999 22.0924 10.3774 21.75 9.11437ZM12.2772 15.4213V10.5785L16.5245 12.9999L12.2772 15.4213Z" fill="#51B8BC"/>
</svg>
